svgs/sharp-regular/square-phone.svg

<svg xmlns="http://www.w3.org/2000/svg" viewBox="0 0 448 512"><!--! Font Awesome Pro 6.6.0 by @fontawesome - https://fontawesome.com License - https://fontawesome.com/license (Commercial License) Copyright 2024 Fonticons, Inc. --><path d="M48 80l0 352 352 0 0-352L48 80zM0 32l48 0 352 0 48 0 0 48 0 352 0 48-48 0L48 480 0 480l0-48L0 80 0 32zm168 96l40 72-41.9 33.5c18.1 34.2 46.2 62.3 80.4 80.4L280 272l72 40-16 72-16 0C196.3 384 96 283.7 96 160l0-16 72-16z"/></svg>

<svg xmlns="http://www.w3.org/2000/svg" viewBox="0 0 448 512"><!--! Font Awesome Pro 6.5.2 by @fontawesome - https://fontawesome.com License - https://fontawesome.com/license (Commercial License) Copyright 2024 Fonticons, Inc. --><path d="M48 80V432H400V80H48zM0 32H48 400h48V80 432v48H400 48 0V432 80 32zm168 96l40 72-41.9 33.5c18.1 34.2 46.2 62.3 80.4 80.4L280 272l72 40-16 72H320C196.3 384 96 283.7 96 160l0-16 72-16z"/></svg>
